Arcticons/scalable/apps/bestbuy.svg

<svg viewBox="0 0 48 48" xmlns="http://www.w3.org/2000/svg">
 <defs>
  <style>.a{fill:none;stroke:#fff;stroke-linecap:round;stroke-linejoin:round;}</style>
 </defs>
 <path class="a" d="m12.22 11.24-7.72 7.62v10.42l7.5 7.48h31.5v-25.52zm-2.59 10.51a1.94 1.94 0 1 1-1.93 1.94 1.93 1.93 0 0 1 1.93-1.94z"/>
</svg>

<svg xmlns="http://www.w3.org/2000/svg" viewBox="0 0 48 48"><defs><style>.a{fill:none;stroke:#fff;stroke-linecap:round;stroke-linejoin:round;}</style></defs><path class="a" d="M12.22,11.24,4.5,18.86V29.28L12,36.76H43.5V11.24ZM9.63,21.75A1.94,1.94,0,1,1,7.7,23.69h0A1.93,1.93,0,0,1,9.63,21.75Z"/></svg>
